X:01
T: The Gan Ainm Hornpipe
R: hornpipe
M: 4/4
L: 1/8
Z: Contributed 2016-09-15 18:27:21 by rachel ward Woodenflute13@Gmail.com
K: Emin
|:ABCd BCBA||B2GA FDG2|GFGA BCd|g3 bgd2|BCA2 AGA|
 ABCd BCBA||B2GA FDG2|GFGA BCd |g3f gaf|gba fg3|

